X: 110798
T: Kitty Come Over
S: "Music of Ireland - The Big Session" (DJ Taylor)
Z: B.Black
L: 1/8
M: 6/8
R: jig
K: D
f2 e fdB|Add dfa|bab afd|Bcd efg|
f2 e fdB|Add dfa|bgb afe|fdd d3 :|
dcd Bcd efd cBA|dcd BAG|FED EFG|
F2 E FDB,|A,DD DFA|GBd AFE|FDD D3 :|
